assets/images/vector/icons/book_open_icon.svg

<svg fill="none" height="51" viewBox="0 0 59 51" width="59" xmlns="http://www.w3.org/2000/svg"><g stroke="#111" stroke-linecap="round" stroke-linejoin="round" stroke-width="10"><path d="m29.1635 45.9567c.5667 0 1.13-.15 1.6467-.4467 2.1433-1.2367 5.7733-2.8233 10.47-2.8167 2.9966.0034 5.5566.6567 7.5666 1.45 2.16.85 4.48-.8 4.48-3.1233v-30.2767c0-1.17997-.6033-2.26663-1.62-2.86663-2.1233-1.25334-5.7533-2.87667-10.4666-2.87667-6.3 0-10.66 2.90667-12.08 3.94"/><path d="m29.1633 45.9567c-.5666 0-1.13-.15-1.6466-.4466-2.1434-1.2367-5.7734-2.8234-10.47-2.8167-2.9967.0033-5.5567.6567-7.5667 1.45-2.16.85-4.48-.79-4.48-3.11 0-8.6433 0-24.9066 0-30.3 0-1.17998.60333-2.25332 1.62-2.85332 2.12333-1.25333 5.7533-2.87666 10.4667-2.87666 6.3 0 10.66 2.90666 12.08 3.94v37.01328z"/></g></svg>

<svg width="59" height="51" viewBox="0 0 59 51" fill="none" xmlns="http://www.w3.org/2000/svg">
<path d="M29.1635 45.9567C29.7302 45.9567 30.2935 45.8067 30.8102 45.51C32.9535 44.2733 36.5835 42.6867 41.2802 42.6933C44.2768 42.6967 46.8368 43.35 48.8468 44.1433C51.0068 44.9933 53.3268 43.3433 53.3268 41.02V10.7433C53.3268 9.56333 52.7235 8.47667 51.7068 7.87667C49.5835 6.62333 45.9535 5 41.2402 5C34.9402 5 30.5802 7.90667 29.1602 8.94" stroke="#111111" stroke-width="10" stroke-linecap="round" stroke-linejoin="round"/>
<path d="M29.1633 45.9567C28.5967 45.9567 28.0333 45.8067 27.5167 45.5101C25.3733 44.2734 21.7433 42.6867 17.0467 42.6934C14.05 42.6967 11.49 43.3501 9.48 44.1434C7.32 44.9934 5 43.3534 5 41.0334C5 32.3901 5 16.1268 5 10.7334C5 9.55342 5.60333 8.48008 6.62 7.88008C8.74333 6.62675 12.3733 5.00342 17.0867 5.00342C23.3867 5.00342 27.7467 7.91008 29.1667 8.94342V45.9567H29.1633Z" stroke="#111111" stroke-width="10" stroke-linecap="round" stroke-linejoin="round"/>
</svg>
